img/social-02.svg

<svg width="25" height="25" viewBox="0 0 25 25" fill="none" xmlns="http://www.w3.org/2000/svg">
<path fill-rule="evenodd" clip-rule="evenodd" d="M18.3014 5.14628C18.1052 5.14639 17.911 5.1851 17.7298 5.2602C17.5486 5.3353 17.384 5.44531 17.2454 5.58396C17.1067 5.72262 16.9968 5.88719 16.9218 6.06828C16.8468 6.24938 16.8083 6.44345 16.8084 6.63942C16.8085 6.83539 16.8473 7.02942 16.9225 7.21043C16.9976 7.39144 17.1078 7.55588 17.2466 7.69438C17.3854 7.83287 17.5501 7.94269 17.7314 8.01758C17.9127 8.09247 18.107 8.13096 18.3031 8.13085C18.4993 8.13074 18.6935 8.09203 18.8747 8.01693C19.0559 7.94183 19.2205 7.83181 19.3592 7.69316C19.4978 7.55451 19.6078 7.38994 19.6827 7.20885C19.7577 7.02775 19.7962 6.83368 19.7961 6.63771C19.796 6.44174 19.7572 6.24771 19.6821 6.0667C19.6069 5.88569 19.4968 5.72124 19.358 5.58275C19.2192 5.44426 19.0544 5.33443 18.8731 5.25954C18.6919 5.18465 18.4976 5.14617 18.3014 5.14628ZM12.0721 9.00342C13.0781 9.00365 14.0429 9.40311 14.7541 10.1139C15.4654 10.8247 15.8648 11.7887 15.8646 12.7937C15.8644 13.7987 15.4645 14.7625 14.7529 15.473C14.0414 16.1835 13.0764 16.5825 12.0704 16.5823C11.0643 16.5821 10.0995 16.1826 9.38828 15.4718C8.67705 14.761 8.27761 13.797 8.27784 12.792C8.27806 11.787 8.67794 10.8232 9.3895 10.1127C10.1011 9.40222 11.066 9.00319 12.0721 9.00342ZM12.0721 6.58628C8.63993 6.58628 5.85989 9.36342 5.85989 12.792C5.85989 16.2206 8.63993 18.9977 12.0721 18.9977C15.5042 18.9977 18.2842 16.2206 18.2842 12.792C18.2842 9.36342 15.5042 6.58628 12.0721 6.58628ZM7.21559 0.791992H16.9286C20.7554 0.791992 23.8958 3.80913 24.0846 7.58056V17.6434C24.0846 21.4663 21.0643 24.6034 17.2889 24.792H7.21559C3.38875 24.792 0.248338 21.7748 0.0595703 18.0034V7.94056C0.0595703 4.11771 3.07986 0.980564 6.85521 0.791992H16.9286H7.21559ZM21.6649 17.6434C21.6649 18.2648 21.5424 18.88 21.3044 19.4541C21.0664 20.0281 20.7175 20.5497 20.2777 20.989C19.8379 21.4284 19.3157 21.7769 18.7411 22.0147C18.1664 22.2525 17.5505 22.3748 16.9286 22.3748H7.21559C5.95943 22.3748 4.75472 21.8764 3.86648 20.989C2.97824 20.1017 2.47923 18.8983 2.47923 17.6434V7.94056C2.47923 6.68571 2.97824 5.48225 3.86648 4.59494C4.75472 3.70762 5.95943 3.20914 7.21559 3.20914H16.9286C17.5505 3.20914 18.1664 3.33152 18.7411 3.56929C19.3157 3.80707 19.8379 4.15558 20.2777 4.59494C20.7175 5.03429 21.0664 5.55588 21.3044 6.12992C21.5424 6.70397 21.6649 7.31922 21.6649 7.94056V17.6434Z" fill="white"/>
</svg>

<svg width="25" height="25" fill="none" xmlns="http://www.w3.org/2000/svg"><path fill-rule="evenodd" clip-rule="evenodd" d="M18.301 5.146a1.495 1.495 0 00-1.493 1.493 1.49 1.49 0 001.495 1.492 1.495 1.495 0 001.38-2.064 1.492 1.492 0 00-1.382-.92zm-6.229 3.857a3.795 3.795 0 013.793 3.79 3.787 3.787 0 01-3.795 3.79 3.795 3.795 0 01-3.792-3.791 3.787 3.787 0 013.794-3.789zm0-2.417a6.207 6.207 0 00-6.212 6.206 6.207 6.207 0 006.212 6.206 6.207 6.207 0 006.212-6.206 6.207 6.207 0 00-6.212-6.206zM7.216.792h9.713c3.826 0 6.967 3.017 7.156 6.789v10.062c0 3.823-3.02 6.96-6.796 7.149H7.216c-3.827 0-6.968-3.017-7.156-6.789V7.941C.06 4.118 3.08.98 6.855.792H16.93 7.216zm14.449 16.851a4.728 4.728 0 01-2.924 4.372 4.74 4.74 0 01-1.812.36H7.216a4.738 4.738 0 01-3.35-1.386 4.729 4.729 0 01-1.387-3.346V7.941c0-1.255.5-2.459 1.387-3.346a4.739 4.739 0 013.35-1.386h9.713a4.741 4.741 0 014.375 2.92c.238.575.36 1.19.36 1.812v9.702z" fill="#fff"/></svg>
